X:1
T:Dare to Be Brave, 8.10.9.10.99
T:Dare to Be Brave, 8.10.9.10.99
T:Duncan Clive Mackenzie Hume, 1889
T:Public Domain Courtesy of the Cyber Hymnal™
C:Duncan Clive Mackenzie Hume, 1889
Z:Public Domain
Z:Courtesy of the Cyber Hymnal™
%%score ( 1 2 ) ( 3 4 )
L:1/8
Q:1/4=115
M:3/4
K:F
V:1 treble 
V:2 treble 
V:3 bass 
V:4 bass 
V:1
 [FA]2 [FA]2 [FA]2 | [EB]6 | [CE]2 [CD]2 [CE]2 | [CF]6 | [EG]2 [EA]2 [EB]2 | [Fc]4 [FA][FG] | %6
 F2 [=B,E]2 [B,F]2 | [CG]6 | [EG]2 [FA]2 [GB]2 | [FA]4 F2 | [Fc]2 [Fd]2 [F_e]2 | [Fd]6 | %12
 [Ge]2 [Fd]2 [Ec]2 | [Ff]2 [Fc]2 [Fd]2 | [Ge]2 [Gd]2 [FG]2 | [Ec]6 | [FA]2 [FA]2 [FA]2 | %17
 [EB]4 [EB]2 | [CE]2 [CD]2 [B,E]2 | [A,F]6 | [DB]2 [Ec]2 [Fd]2 | [Fc]4 [FA]2 | [FB]2 [FA]2 [EG]2 | %23
 F6 |] %24
V:2
 x6 | x6 | x6 | x6 | x6 | x6 | F2 x4 | x6 | x6 | x4 F2 | x6 | x6 | x6 | x6 | x6 | x6 | x6 | x6 | %18
 x6 | x6 | x6 | x6 | x6 | F6 |] %24
V:3
 [F,C]2 [C,C]2 [F,C]2 | C6 | [G,B,]2 [C,B,]2 [G,B,]2 | A,6 | [B,C]2 [B,C]2 [B,C]2 | %5
 [A,C]4 [F,C][F,C] | [D,=B,]2 [D,G,]2 [D,G,]2 | [C,E,]6 | [C,C]2 [C,C]2 [C,C]2 | [F,C]4 [F,A,]2 | %10
 [F,A,]2 [F,B,]2 [F,C]2 | B,6 | [B,C]2 [B,C]2 [B,C]2 | [A,C]2 [A,C]2 [A,C]2 | %14
 [G,C]2 [G,=B,]2 [G,B,]2 | [C,C]6 | [F,C]2 [C,C]2 [F,C]2 | C4 [G,C]2 | [G,B,]2 [C,A,]2 [^C,G,]2 | %19
 F,6 | [B,,F,]2 [B,,F,]2 [B,,F,]2 | [C,A,]4 [C,C]2 | [C,D]2 [C,C]2 [C,B,]2 | [F,A,]6 |] %24
V:4
 x6 | (G,2 C,2 G,2) | x6 | (F,2 C,2 F,2) | x6 | x6 | x6 | x6 | x6 | x6 | x6 | B,6 | x6 | x6 | x6 | %15
 x6 | x6 | (G,2 C,2) x2 | x6 | (D,4 C,2) | x6 | x6 | x6 | x6 |] %24

